assets/svg/1F4E9.svg

<svg xmlns="http://www.w3.org/2000/svg" viewBox="0 0 64 64" enable-background="new 0 0 64 64"><g transform="translate(1.576-.105)"><path d="m60.919 54.09c0 5.433-4.403 9.841-9.841 9.841h-41.23c-5.437 0-9.843-4.409-9.843-9.841v-32.439c0-5.433 4.406-9.843 9.843-9.843h41.23c5.438 0 9.841 4.41 9.841 9.843v32.439" fill="#e6e7e8"/><path d="m20.505 38.06c6.256-6.432 3.478-3.654 9.839-9.843h.229c4.843 4.709 4.104 4.337 9.84 9.843l20.506 16.03c0 5.433-4.403 9.841-9.841 9.841h-41.23c-5.437 0-9.843-4.409-9.843-9.841l20.505-16.03" fill="#c0c0c0"/><path d="m21.72 39.681c5.494-5.492 3.053-3.118 8.642-8.406h.196c4.255 4.02 3.603 3.706 8.641 8.406l18 13.692c0 4.638-3.866 8.401-8.643 8.401h-36.2c-4.776 0-8.642-3.764-8.642-8.401l18-13.692" fill="#e6e7e8"/><path d="m19.55 40.627c.184.062 10.907 7.27 10.907 7.27l11.06-7.27-2.133-1.834-4.757 3.789-4.092 2.442-1.403-.285-5.615-4.355-2.867-2.01-1.097 2.256" fill="#b4b4b5"/><path d="m60.919 21.651c0-5.433-4.403-9.843-9.841-9.843h-41.23c-5.437 0-9.843 4.41-9.843 9.843l29.67 25.21c.215.214.437.423.674.66h.229c.305-.296.583-.565.851-.826l29.495-25.05" fill="#b2b2b2"/><path d="m57.25 21.985c0-4.78-3.878-8.658-8.658-8.658h-36.26c-4.78 0-8.658 3.878-8.658 8.658l26.1 22.17c.19.187.384.372.596.582h.196c.269-.266.515-.499.746-.729l25.942-22.02" fill="#f2f2f2"/><path d="m46.706 17.15l-16.208 18.833-16.289-18.651c.196-2.617 1.935-4.675 4.07-4.681l3.619-.021-.091-7.384c-.012-2.859 2.291-5.192 5.152-5.208l6.717-.034c2.861-.014 5.188 2.291 5.203 5.152l.091 7.384 3.617-.021c2.129-.011 3.893 2.02 4.119 4.631l0 0" fill="#1b75bb"/></g></svg>

<?xml version="1.0" encoding="UTF-8" standalone="no"?>
<!-- Generator: Adobe Illustrator 16.0.0, SVG Export Plug-In . SVG Version: 6.00 Build 0)  -->

<svg
   xmlns:dc="http://purl.org/dc/elements/1.1/"
   xmlns:cc="http://creativecommons.org/ns#"
   xmlns:rdf="http://www.w3.org/1999/02/22-rdf-syntax-ns#"
   xmlns:svg="http://www.w3.org/2000/svg"
   xmlns="http://www.w3.org/2000/svg"
   xmlns:sodipodi="http://sodipodi.sourceforge.net/DTD/sodipodi-0.dtd"
   xmlns:inkscape="http://www.inkscape.org/namespaces/inkscape"
   version="1.1"
   id="Layer_1"
   x="0px"
   y="0px"
   width="64px"
   height="64px"
   viewBox="0 0 64 64"
   enable-background="new 0 0 64 64"
   xml:space="preserve"
   inkscape:version="0.48.5 r10040"
   sodipodi:docname="1F4E9.svg"
   inkscape:export-filename="D:\TESTINGEMOJI\SVGTEST\1F4E9.png"
   inkscape:export-xdpi="90"
   inkscape:export-ydpi="90"><metadata
   id="metadata3995"><rdf:RDF><cc:Work
       rdf:about=""><dc:format>image/svg+xml</dc:format><dc:type
         rdf:resource="http://purl.org/dc/dcmitype/StillImage" /><dc:title></dc:title></cc:Work></rdf:RDF></metadata><defs
   id="defs3993" /><sodipodi:namedview
   pagecolor="#ffffff"
   bordercolor="#666666"
   borderopacity="1"
   objecttolerance="10"
   gridtolerance="10"
   guidetolerance="10"
   inkscape:pageopacity="0"
   inkscape:pageshadow="2"
   inkscape:window-width="992"
   inkscape:window-height="796"
   id="namedview3991"
   showgrid="false"
   inkscape:zoom="9.515625"
   inkscape:cx="32"
   inkscape:cy="32"
   inkscape:window-x="814"
   inkscape:window-y="138"
   inkscape:window-maximized="0"
   inkscape:current-layer="Layer_1" />
<g
   id="g3975"
   transform="translate(1.5763547,-0.10509031)">
	<path
   d="m 60.919,54.09 c 0,5.433 -4.403,9.841 -9.841,9.841 H 9.843 C 4.406,63.931 0,59.522 0,54.09 V 21.651 c 0,-5.433 4.406,-9.843 9.843,-9.843 h 41.235 c 5.438,0 9.841,4.41 9.841,9.843 V 54.09 z"
   id="path3977"
   inkscape:connector-curvature="0"
   style="fill:#e6e7e8" />
	<path
   d="m 20.505,38.057 c 6.256,-6.432 3.478,-3.654 9.839,-9.843 h 0.229 c 4.843,4.709 4.104,4.337 9.84,9.843 L 60.919,54.09 c 0,5.433 -4.403,9.841 -9.841,9.841 H 9.843 C 4.406,63.931 0,59.522 0,54.09 L 20.505,38.057 z"
   id="path3979"
   inkscape:connector-curvature="0"
   style="fill:#c0c0c0" />
	<path
   d="m 21.72,39.681 c 5.494,-5.492 3.053,-3.118 8.642,-8.406 h 0.196 c 4.255,4.022 3.603,3.706 8.641,8.406 l 18.005,13.692 c 0,4.638 -3.866,8.401 -8.643,8.401 H 12.358 c -4.776,0 -8.642,-3.764 -8.642,-8.401 L 21.72,39.681 z"
   id="path3981"
   inkscape:connector-curvature="0"
   style="fill:#e6e7e8" />
	<path
   d="m 19.55,40.627 c 0.184,0.062 10.907,7.27 10.907,7.27 l 11.057,-7.27 -2.133,-1.834 -4.757,3.789 -4.092,2.442 -1.403,-0.285 -5.615,-4.355 -2.867,-2.013 -1.097,2.256 z"
   id="path3983"
   inkscape:connector-curvature="0"
   style="fill:#b4b4b5" />
	<path
   d="m 60.919,21.651 c 0,-5.433 -4.403,-9.843 -9.841,-9.843 H 9.843 C 4.406,11.808 0,16.218 0,21.651 l 29.67,25.213 c 0.215,0.214 0.437,0.423 0.674,0.66 h 0.229 c 0.305,-0.296 0.583,-0.565 0.851,-0.826 L 60.919,21.651 z"
   id="path3985"
   inkscape:connector-curvature="0"
   style="fill:#b2b2b2" />
	<path
   d="m 57.247,21.985 c 0,-4.78 -3.878,-8.658 -8.658,-8.658 H 12.328 c -4.78,0 -8.658,3.878 -8.658,8.658 l 26.097,22.172 c 0.19,0.187 0.384,0.372 0.596,0.582 h 0.196 c 0.269,-0.266 0.515,-0.499 0.746,-0.729 L 57.247,21.985 z"
   id="path3987"
   inkscape:connector-curvature="0"
   style="fill:#f2f2f2" />
	<path
   d="M 46.706,17.146 30.498,35.979 14.209,17.328 c 0.196,-2.617 1.935,-4.675 4.07,-4.681 L 21.898,12.626 21.807,5.242 C 21.795,2.383 24.098,0.05 26.959,0.034 L 33.676,0 c 2.861,-0.014 5.188,2.291 5.203,5.152 l 0.091,7.384 3.617,-0.021 c 2.129,-0.011 3.893,2.017 4.119,4.631 l 0,0 z"
   id="path3989"
   inkscape:connector-curvature="0"
   style="fill:#1b75bb" />
</g>
</svg>
